build/svg/cmd/lc_hyphenate.svg

<?xml version="1.0" encoding="UTF-8" standalone="no"?>
<svg
   xmlns:dc="http://purl.org/dc/elements/1.1/"
   xmlns:cc="http://creativecommons.org/ns#"
   xmlns:rdf="http://www.w3.org/1999/02/22-rdf-syntax-ns#"
   xmlns:svg="http://www.w3.org/2000/svg"
   xmlns="http://www.w3.org/2000/svg"
   xmlns:sodipodi="http://sodipodi.sourceforge.net/DTD/sodipodi-0.dtd"
   xmlns:inkscape="http://www.inkscape.org/namespaces/inkscape"
   viewBox="0 0 24 24"
   version="1.1"
   id="svg6"
   sodipodi:docname="lc_hyphenate.svg"
   inkscape:export-filename="/home/jupiter007/Libreoffice yaru theme fullcolor/build/cmd/lc_hyphenate.png"
   inkscape:export-xdpi="95"
   inkscape:export-ydpi="95"
   inkscape:version="0.92.5 (2060ec1f9f, 2020-04-08)">
  <metadata
     id="metadata12">
    <rdf:RDF>
      <cc:Work
         rdf:about="">
        <dc:format>image/svg+xml</dc:format>
        <dc:type
           rdf:resource="http://purl.org/dc/dcmitype/StillImage" />
      </cc:Work>
    </rdf:RDF>
  </metadata>
  <defs
     id="defs10" />
  <sodipodi:namedview
     pagecolor="#ffffff"
     bordercolor="#666666"
     borderopacity="1"
     objecttolerance="10"
     gridtolerance="10"
     guidetolerance="10"
     inkscape:pageopacity="0"
     inkscape:pageshadow="2"
     inkscape:window-width="1920"
     inkscape:window-height="1011"
     id="namedview8"
     showgrid="true"
     inkscape:zoom="19.666667"
     inkscape:cx="0.65701365"
     inkscape:cy="11.501932"
     inkscape:window-x="1920"
     inkscape:window-y="32"
     inkscape:window-maximized="1"
     inkscape:current-layer="svg6">
    <inkscape:grid
       type="xygrid"
       id="grid822" />
  </sodipodi:namedview>
  <path
     inkscape:connector-curvature="0"
     style="opacity:0.6;fill:#000000;fill-opacity:1;stroke:#000000;stroke-width:2;stroke-linecap:butt;stroke-linejoin:round;stroke-miterlimit:4;stroke-dasharray:none;stroke-opacity:1"
     d="M 10.5,18 15,15 v 2 h 2 c 1,0 1,0 1,-2 v -1 h 2 v 1 1 c 0,2 0,3 -2,3 h -3 v 2 z"
     id="path877"
     sodipodi:nodetypes="ccccccccccccc" />
  <path
     style="opacity:0.6;fill:#000000;stroke:#000000;stroke-width:2;stroke-linejoin:round;stroke-miterlimit:4;stroke-dasharray:none"
     id="path867"
     d="m 6,14 c -1.65685,0 -3,1.3432 -3,3 0,1.6569 1.34315,3 3,3 H 7 V 19 H 6 C 4.895431,19 4,18.1046 4,17 4,15.8954 4.895431,15 6,15 h 1 v -1 z"
     inkscape:connector-curvature="0" />
  <path
     style="opacity:0.6;fill:#000000;stroke:#000000;stroke-width:2;stroke-linejoin:round;stroke-miterlimit:4;stroke-dasharray:none"
     id="path865"
     d="m 12,4 v 2 1 2 1 h 3 C 16.108,10 17,9.108 17,8 17,7.1891 16.50311,6.502 15.8125,6.1875 15.91845,5.9817 16,5.7483 16,5.5 16,4.669 15.331,4 14.5,4 H 13 Z m 1,1 h 1.5 C 14.777,5 15,5.223 15,5.5 15,5.777 14.777,6 14.5,6 H 13 Z m 0,2 h 1.5 0.5 c 0.554,0 1,0.446 1,1 0,0.554 -0.446,1 -1,1 h -2 z"
     inkscape:connector-curvature="0" />
  <path
     id="path849"
     d="M 5.3125 4 L 3.4765625 10 L 4.5234375 10 L 5.1347656 8 L 6.8652344 8 L 7.4785156 10 L 8.5234375 10 L 6.6875 4 L 5.3125 4 z M 6 5.1738281 L 6.5585938 7 L 5.4414062 7 L 6 5.1738281 z "
     style="opacity:0.6;fill:#000000;fill-opacity:1;fill-rule:evenodd;stroke:#000000;stroke-width:2;stroke-linecap:butt;stroke-linejoin:round;stroke-miterlimit:4;stroke-dasharray:none;stroke-opacity:1" />
  <path
     d="m 12,4 v 2 1 2 1 h 3 C 16.108,10 17,9.108 17,8 17,7.1891 16.50311,6.502 15.8125,6.1875 15.91845,5.9817 16,5.7483 16,5.5 16,4.669 15.331,4 14.5,4 H 13 Z m 1,1 h 1.5 C 14.777,5 15,5.223 15,5.5 15,5.777 14.777,6 14.5,6 H 13 Z m 0,2 h 1.5 0.5 c 0.554,0 1,0.446 1,1 0,0.554 -0.446,1 -1,1 h -2 z"
     id="path861"
     style="fill:#ffffff"
     inkscape:connector-curvature="0" />
  <path
     d="m 6,14 c -1.65685,0 -3,1.3432 -3,3 0,1.6569 1.34315,3 3,3 H 7 V 19 H 6 C 4.895431,19 4,18.1046 4,17 4,15.8954 4.895431,15 6,15 h 1 v -1 z"
     id="path855"
     style="fill:#ffffff"
     inkscape:connector-curvature="0" />
  <path
     style="opacity:1;fill:#ffffff;fill-opacity:1;fill-rule:evenodd;stroke:none;stroke-width:0.63200003;stroke-linecap:butt;stroke-linejoin:round;stroke-miterlimit:4;stroke-dasharray:none;stroke-opacity:1"
     d="M 5.3125 4 L 3.4765625 10 L 4.5234375 10 L 5.1347656 8 L 6.8652344 8 L 7.4785156 10 L 8.5234375 10 L 6.6875 4 L 5.3125 4 z M 6 5.1738281 L 6.5585938 7 L 5.4414062 7 L 6 5.1738281 z "
     id="rect826" />
  <path
     sodipodi:nodetypes="ccccccccccccc"
     id="path841"
     d="M 10.5,18 15,15 v 2 h 2 c 1,0 1,0 1,-2 v -1 h 2 v 1 1 c 0,2 0,3 -2,3 h -3 v 2 z"
     style="fill:#aee3f8;fill-opacity:1;stroke:none;stroke-width:1px;stroke-linecap:butt;stroke-linejoin:miter;stroke-opacity:1"
     inkscape:connector-curvature="0" />
</svg>

<svg xmlns="http://www.w3.org/2000/svg" viewBox="0 0 24 24"><path d="M10.5 18l4.5-3v2h2c1 0 1 0 1-2v-1h2v2c0 2 0 3-2 3h-3v2zM6 14a3 3 0 000 6h1v-1H6a2 2 0 110-4h1v-1zM12 4v6h3c1.108 0 2-.892 2-2 0-.81-.497-1.498-1.188-1.813.106-.205.188-.439.188-.687 0-.831-.669-1.5-1.5-1.5H13zm1 1h1.5a.499.499 0 110 1H13zm0 2h2c.554 0 1 .446 1 1s-.446 1-1 1h-2z" opacity=".6" stroke="#000" stroke-width="2" stroke-linejoin="round"/><path d="M5.313 4l-1.836 6h1.046l.612-2h1.73l.614 2h1.044L6.688 4H5.313zM6 5.174L6.559 7H5.44L6 5.174z" opacity=".6" fill-rule="evenodd" stroke="#000" stroke-width="2" stroke-linejoin="round"/><path d="M12 4v6h3c1.108 0 2-.892 2-2 0-.81-.497-1.498-1.188-1.813.106-.205.188-.439.188-.687 0-.831-.669-1.5-1.5-1.5H13zm1 1h1.5a.499.499 0 110 1H13zm0 2h2c.554 0 1 .446 1 1s-.446 1-1 1h-2zM6 14a3 3 0 000 6h1v-1H6a2 2 0 110-4h1v-1z" fill="#fff"/><path d="M5.313 4l-1.836 6h1.046l.612-2h1.73l.614 2h1.044L6.688 4H5.313zM6 5.174L6.559 7H5.44L6 5.174z" fill="#fff" fill-rule="evenodd"/><path d="M10.5 18l4.5-3v2h2c1 0 1 0 1-2v-1h2v2c0 2 0 3-2 3h-3v2z" fill="#aee3f8"/></svg>
